roller-skate.svg

<svg fill="currentColor" viewBox="0 0 24 24"><path d="M6.5 18C5.1 18 4 19.12 4 20.5S5.1 23 6.5 23 9 21.88 9 20.5 7.86 18 6.5 18m10 0c-1.4 0-2.5 1.12-2.5 2.5s1.1 2.5 2.5 2.5 2.5-1.12 2.5-2.5-1.14-2.5-2.5-2.5m3.5-1c0-1.37.09-3.19-.5-4.05-.95-2.05-3.68-2.39-5.59-2.9C13 10 12 9 11.82 8H9a.49.49 0 0 1-.5-.5c0-.28.21-.5.5-.5h2.5V6H9a.49.49 0 0 1-.5-.5c0-.28.21-.5.5-.5h2.5V2H3v15z"/></svg>

<svg  viewBox="0 0 24 24" fill="currentColor"><path  d="M6.5 18C5.1 18 4 19.12 4 20.5S5.1 23 6.5 23 9 21.88 9 20.5 7.86 18 6.5 18M16.5 18C15.1 18 14 19.12 14 20.5S15.1 23 16.5 23 19 21.88 19 20.5 17.86 18 16.5 18M20 17C20 15.63 20.09 13.81 19.5 12.95C18.55 10.9 15.82 10.56 13.91 10.05C13 10 12 9 11.82 8H9C8.71 8 8.5 7.78 8.5 7.5C8.5 7.22 8.71 7 9 7H11.5V6H9C8.71 6 8.5 5.78 8.5 5.5C8.5 5.22 8.71 5 9 5H11.5V2H3V17H20Z"/></svg>
